src/assets/icons/home-active.svg

<svg width="24" height="24" viewBox="0 0 24 24" fill="none" xmlns="http://www.w3.org/2000/svg">
<path d="M4.81944 7.20818C7.72827 4.28816 9.18269 2.82814 10.9319 2.49746C11.6377 2.36402 12.3623 2.36402 13.0681 2.49746C14.8173 2.82814 16.2717 4.28816 19.1806 7.20818C20.2758 8.30763 20.8234 8.85735 21.1741 9.5232C21.3186 9.7976 21.4372 10.0848 21.5285 10.3812C21.75 11.1004 21.75 11.8764 21.75 13.4282V18.5C21.75 20.2949 20.2949 21.75 18.5 21.75C16.7051 21.75 15.25 20.2949 15.25 18.5V17.3875C15.25 15.5926 13.7949 14.1375 12 14.1375C10.2051 14.1375 8.75 15.5926 8.75 17.3875V18.5C8.75 20.2949 7.29493 21.75 5.5 21.75C3.70507 21.75 2.25 20.2949 2.25 18.5V13.4282C2.25 11.8764 2.25 11.1004 2.47151 10.3812C2.56279 10.0848 2.68144 9.7976 2.82594 9.5232C3.17659 8.85735 3.7242 8.30763 4.81944 7.20818Z" fill="#1D2129"/>
</svg>

<svg width="24" height="24" fill="none" xmlns="http://www.w3.org/2000/svg"><path d="M4.82 7.208c2.908-2.92 4.363-4.38 6.112-4.71a5.8 5.8 0 0 1 2.136 0c1.75.33 3.204 1.79 6.113 4.71 1.095 1.1 1.642 1.65 1.993 2.315a5 5 0 0 1 .355.858c.221.72.221 1.495.221 3.047V18.5a3.25 3.25 0 0 1-6.5 0v-1.113a3.25 3.25 0 0 0-6.5 0V18.5a3.25 3.25 0 0 1-6.5 0v-5.072c0-1.552 0-2.328.222-3.047q.136-.445.354-.858c.35-.666.898-1.215 1.993-2.315" fill="#1D2129"/></svg>
